icon.svg

<?xml version="1.0" encoding="UTF-8"?>
<svg xmlns="http://www.w3.org/2000/svg" xmlns:xlink="http://www.w3.org/1999/xlink" width="300px" height="300px" viewBox="0 0 300 300" version="1.1">
<g id="surface1">
<path style="fill:none;stroke-width:2;stroke-linecap:round;stroke-linejoin:round;stroke:rgb(0%,0%,0%);stroke-opacity:1;stroke-miterlimit:4;" d="M 17.000001 3 L 17.000001 4 C 16.990001 7.352188 15.320001 10.023126 11.991876 12.014063 C 8.664063 14.004063 15.327813 10.014063 12.000001 12.000001 C 8.672188 13.990001 7 16.661876 6.992188 20.014064 L 6.992188 21.014064 " transform="matrix(12.499999,0,0,12.499999,0,0)"/>
<path style="fill:none;stroke-width:2;stroke-linecap:round;stroke-linejoin:round;stroke:rgb(0%,0%,0%);stroke-opacity:1;stroke-miterlimit:4;" d="M 17.000001 21.014064 L 17.000001 20.014064 C 16.990001 16.661876 15.320001 13.990938 11.991876 12.000001 C 8.664063 10.010001 15.327813 14.000001 12.000001 12.014063 C 8.672188 10.023126 7 7.352188 6.992188 4 L 6.992188 3 " transform="matrix(12.499999,0,0,12.499999,0,0)"/>
<path style="fill:none;stroke-width:2;stroke-linecap:round;stroke-linejoin:round;stroke:rgb(0%,0%,0%);stroke-opacity:1;stroke-miterlimit:4;" d="M 7 4 L 17.000001 4 " transform="matrix(12.499999,0,0,12.499999,0,0)"/>
<path style="fill:none;stroke-width:2;stroke-linecap:round;stroke-linejoin:round;stroke:rgb(0%,0%,0%);stroke-opacity:1;stroke-miterlimit:4;" d="M 7 20.000001 L 17.000001 20.000001 " transform="matrix(12.499999,0,0,12.499999,0,0)"/>
<path style="fill:none;stroke-width:2;stroke-linecap:round;stroke-linejoin:round;stroke:rgb(0%,0%,0%);stroke-opacity:1;stroke-miterlimit:4;" d="M 8 8 L 16.000001 8 " transform="matrix(12.499999,0,0,12.499999,0,0)"/>
<path style="fill:none;stroke-width:2;stroke-linecap:round;stroke-linejoin:round;stroke:rgb(0%,0%,0%);stroke-opacity:1;stroke-miterlimit:4;" d="M 8 16.000001 L 16.000001 16.000001 " transform="matrix(12.499999,0,0,12.499999,0,0)"/>
</g>
</svg>

<svg  xmlns="http://www.w3.org/2000/svg"  width="24"  height="24"  viewBox="0 0 24 24"  fill="none"  stroke="currentColor"  stroke-width="2"  stroke-linecap="round"  stroke-linejoin="round"  class="icon icon-tabler icons-tabler-outline icon-tabler-dna-2"><path stroke="none" d="M0 0h24v24H0z" fill="none"/><path d="M17 3v1c-.01 3.352 -1.68 6.023 -5.008 8.014c-3.328 1.99 3.336 -2 .008 -.014c-3.328 1.99 -5 4.662 -5.008 8.014v1" /><path d="M17 21.014v-1c-.01 -3.352 -1.68 -6.023 -5.008 -8.014c-3.328 -1.99 3.336 2 .008 .014c-3.328 -1.991 -5 -4.662 -5.008 -8.014v-1" /><path d="M7 4h10" /><path d="M7 20h10" /><path d="M8 8h8" /><path d="M8 16h8" /></svg>
